X:1
T:Helas mamour
T:Clemens non Papa (c. 1510 - 1555)
T: Jean Marot  (c. 1450 - c. 1526)
T:Helas mamour
T:(C) Wim Looyestijn 2019. May be freely copied for non-commercial use.
T:(C) Wim Looyestijn 2019. May be freely copied for non-commercial use.
T:(C) Wim Looyestijn 2019. May be freely copied for non-commercial use.
T:(C) Wim Looyestijn 2019. May be freely copied for non-commercial use.
T:(C) Wim Looyestijn 2019. May be freely copied for non-commercial use.
T:(C) Wim Looyestijn 2019. May be freely copied for non-commercial use.
T:(C) Wim Looyestijn 2019. May be freely copied for non-commercial use.
T:(C) Wim Looyestijn 2019. May be freely copied for non-commercial use.
T:(C) Wim Looyestijn 2019. May be freely copied for non-commercial use.
C:Clemens non Papa
C:(c. 1510 - 1555)
Z:Jean Marot  (c. 1450 - c. 1526)
Z:(C) Wim Looyestijn 2019. May be freely copied for non-commercial use.
%%score [ 1 2 3 4 ]
L:1/8
Q:1/4=120
M:2/2
K:C
V:1 treble nm="Superius"
V:2 alto2 nm="Contra tenor"
V:3 alto nm="Tenor"
V:4 tenor nm="Bassus"
V:1
 x8 | z8 | x8 |[K:Bb] B16 | c8 c8 | B16 | z4 B4 | c4 e4- | e4 d2 c2 | d4 d4 | d4 c4 | B4 A4- | %12
w: |||He-|las ma-|mour,|he-|las ma-||mour, tu|sens ou|ie pre-|
 A2 G2 G4- | G4 F4 | G8- | G8 | z4 G4 | G4 G4 | B8- | B4 e4 | e4 d4 | e2 d2 c2 B2 | A4 G4 | A8 | %24
w: ||tens,|_|ie|te sup-|pli'|_ a|la cla-|meur _ _ _|_ _|en-|
 G8- | G8 | z4 G4 | B8 | A8 | G4 d4 | d4 d4 | e4 d4 | f6 e2 | d2 c2 d4 | B2 c2 d2 B2 | c4 A4 | %36
w: tens|_|de|mon|las|ceur, le-|quel cri|a ta|por- *||||
 B4 c4- | c4 B4 | A4 G4- | G4 F4 | G8- | G8 | z4 d4 | d4 d4 | e4 d4 | f6 e2 | d2 c2 d4 | %47
w: ||||te,|_|le-|quel cri|a ta|por- *||
 B2 c2 d2 B2 | c4 A4 | B4 c4- | c4 =B4 | c8 | z8 | B8- | B8 | c8 | c8 | B4 B4 | c4 e4- | e4 d2 c2 | %60
w: ||||te,||s'il|_|a|bien|faict, s'il|a bien|_ _ _|
 d4 d4 | d4 d4 | c2 B2 A2 G2 | A4 A4 | G4 C2 D2 | E2 F2 G2 A2 | B4 c4- | c4 B2 A2 | B4 B4 | c4 c4 | %70
w: faict, et|lo- yal|tu _ _ _|_ le|sens, tu _|_ _ _ _|le sens,|_ _ _|* trai-|ctez le|
 B4 B4 | e4 d4 | c4 B4 | c6 B2 | A4 G4- | G4 ^F4 | G8- | G8 | G8- | G8 | c8 | c8 | B4 d4 | d4 d4 | %84
w: bien qu'il|ne trou-|ble son|sens _|par ta|_ ri-|guer,|_|par|_|ta|ri-|geur, que|sou- vent|
 e4 d4 | f6 e2 | d2 c2 d4 | B2 c2 d2 B2 | c4 A4 | B4 c4- | c4 B4 | A4 G4- | G4 F4 | G8- | G8 | %95
w: le trans-|por- *||||||||te,|_|
 z4 d4 | d4 d4 | e4 d4 | f6 e2 | d2 c2 d4 | B2 c2 d2 B2 | c4 A4 | B4 c4- | c4 =B4 | c8 | z8 | e16 | %107
w: que|sou- vent|le trans-|por- *||||||te.||He-|
 d8 c8 | B16 |] %109
w: las ma-|mour.|
V:2
 x8 | z8 | x8 |[K:Bb] G16 | G8 A8 | G16 | z4 G4 | G4 A4 | B8- | B4 B4 | B4 A4 | G4 F4 | G8 | C8 | %14
w: |||He-|las ma-|mour,|he-|las ma-|mour,|_ tu|sens ou|ie pre-|tens,|ou|
 D4 D4 | E8 | z4 E4 | E4 D4 | G8 | B8 | B4 B4 | B4 G4 | F4 E2 D2 | E4 F4- | F4 E4 | D8 | z4 D4 | %27
w: ie pre-|tens,|ie|te sup-|pli'|a|la cla-|meur en-|tens _ _|_ _|||de|
 G8 | F8 | E4 z4 | z4 G4 | G4 G4 | A4 F4 | B6 A2 | G2 F2 G4 | C4 F4 | F4 F4 | G4 E4 | F2 E2 D2 C2 | %39
w: mon|las|ceur,|le-|quel cri|a ta|por- *||te, le-|quel cri|a ta|por- * * *|
 D2 C2 B,2 A,2 | B,8- | B,8 | z8 | z4 G4 | G4 G4 | A4 F4 | B6 A2 | G2 F2 G4 | C4 F4- | F4 F4 | G8 | %51
w: |te,|_||le-|quel cri|a ta|por- *||te, a|_ ta|por-|
 E8 | z8 | G8- | G8 | G8 | A8 | G4 B4 | B4 A4 | B8 | z4 B4 | B4 B4 | A4 G4 | G4 F4 | G4 G4 | %65
w: te,||s'il|_|a|bien|faict, s'il|a bien|faict,|et|lo- yal|tu le|sens, _|_ et|
 A4 G4 | G4 F4 | G8 | z4 G4 | _A4 A4 | G4 G4 | B6 A2 | G4 G4 | E4 F4 | C8 | D8 | z4 B,4 | E4 E4 | %78
w: lo- yal|tu le|sens,|trai-|ctez le|bien qu'il|ne trou-|ble son|sens par|ta|_|son|sens par|
 D4 B4- | B2 A2 G2 F2 | E2 F2 G4- | G4 F4 | G8 | z4 G4 | G4 G4 | A4 F4 | B6 A2 | G2 F2 G4 | %88
w: ta ri-||||geur,|que|sou- vent|le trans-|por- *||
 C4 F4- | F4 F4 | G4 E4 | F4 E4 | D2 C2 B,2 A,2 | B,8- | B,8 | z8 | z4 G4 | G4 G4 | A4 F4 | B6 A2 | %100
w: te, que|_ sou-|vent le|trans- por-||te,|_||que|sou- vent|le trans-|por- *|
 G2 F2 G4 | C4 F4- | F4 F4 | G8 | E8 | z8 | G16 | G8 G8 | G16 |] %109
w: |te, le|_ trans-|por-|te.||He-|las ma-|mour.|
V:3
 x8 | z8 | x8 |[K:Bb] D16 | E8 F8 | D8 z4 D4 | D8 | E8 | F8- | F4 F4 | F6 E2 | D4 C4 | D4 E4- | %13
w: |||He-|las ma-|mour, he-|las|ma-|mour,|_ tu|sens _|ou ie|pre- tens,|
 E2 D2 C4- | C4 B,4 | C4 G,4 | C4 C4 | B,4 B,4 | E4 D4 | G8- | G4 F4 | G2 F2 E2 D2 | C4 B,4 | %23
w: _ _ _|* ie|te sup-|pli' a|la cla-|meur en-|tens|_ _|||
 C4 D4- | D4 C4- | C4 B,2 A,2 | B,4 B,4 | E8 | C8- | C4 B,2 A,2 | B,8 | z8 | D8 | D4 D4 | E4 D4 | %35
w: |||* de|mon|las|_ _ _|ceur,||le-|quel cri|a ta|
 F6 E2 | D4 C4 | D4 B,4 | C4 B,4 | A,4 D4 | D4 D4 | E4 D4 | F6 E2 | D2 C2 D4 | B,8 | z4 D4 | %46
w: por- *||||te, le-|quel cri|a ta|por- *||te,|le-|
 D4 D4 | E4 D4 | F6 E2 | D4 C4 | D8 | C8 | z8 | D8- | D8 | E8 | F8 | D4 D4 | E4 E4 | F8 | z4 G4 | %61
w: quel cri|a ta|por- *|||te,||s'il|_|a|bien|faict, s'il|a bien|faict,|et|
 G4 D4 | F4 E4 | D8 | E8 | E4 E4 | D4 C4 | D8 | z4 D4 | E4 F4 | D4 D4 | G6 F2 | E4 D4 | C4 F,4- | %74
w: lo- yal|tu le|sens,|et|lo- yal|tu le|sens,|trai-|ctez le|bien qu'il|ne trou-|ble son|sens par|
 F,4 G,4 | A,8 | G,4 G,4 | C4 C4 | B,4 E4 | D4 E4- | E2 D2 C2 B,2 | C4 C4 | D6 CB, | B,8 | z8 | %85
w: _ ta|ri-|guer, ne|trou- ble|son sens|par ta|_ _ _ _|* ri-|geur, _ _|_||
 D8 | D4 D4 | E4 D4 | F6 E2 | D4 C4 | D4 B,4 | C4 B,4 | A,4 D4 | D4 D4 | E4 D4 | F6 E2 | D2 C2 D4 | %97
w: que|sou- vent|le trans-|por- *||||te, que|sou- vent|le trans-|por- *||
 B,8 | z4 D4 | D4 D4 | E4 D4 | F6 E2 | D4 C4 | D8 | C8 | z8 | C16 | D8 E8 | D16 |] %109
w: te,|que|sou- vent|le trans-|por- *|||te.||He-|las ma-|mour.|
V:4
"^Source: Second Livre des Chansons a Quatre, Imprimé à Lovain par Pierre Phalese, D.M.LIX.\nOriginal is badly damaged in Contratenor bars 28, 58-59 and 85; supplied notes are editorial.\nSuggested musica ficta are placed above the stave, in-line accidentals are original." x8 | %1
w: |
 z8 | x8 |[K:Bb] G,16 | C8 F,8 | G,8 z4 G,4 | G,8 | C8 | B,8- | B,4 B,4 | B,4 F,4 | G,4 A,4 | %12
w: ||He-|las ma-|mour, he-|las|ma-|mour,|_ tu|sens ou|ie _|
 B,4 C4 | _A,8 | G,8 | z4 C,4 | C,4 C,4 | G,8- | G,4 G,4 | G,4 G,4 | B,8 | E,8 | F,4 G,4 | %23
w: _ _|pre-|tens,|ie|te sup-|plie,|_ ie|te sup-|pli'|a|la cla-|
 G,4 F,4 | G,8- | G,8 | z4 G,4 | E,8 | F,8 | G,8- | G,8 | z8 | z8 | G,8 | G,4 G,4 | A,4 F,4 | %36
w: meur en-|tens|_|de|mon|las|ceur,|_|||le-|quel cri|a ta|
 B,4 A,4 | G,8 | F,4 G,4 | D,8 | z4 G,4 | G,4 G,4 | A,4 F,4 | B,6 A,2 | G,2 F,2 G,4 | D,8 | %46
w: por- *|||te,|le-|quel cri|a ta|por- *||te,|
 z4 G,4 | G,4 G,4 | A,4 F,4 | B,4 A,4 | G,8 | C,8 | z8 | G,8- | G,8 | C8 | F,8 | G,4 G,4 | C4 C4 | %59
w: le-|quel cri|a ta|por- *||te,||s'il|_|a|bien|faict, s'il|a bien|
 B,6 A,2 | G,8- | G,8 | z8 | z8 | C8 | C4 C4 | B,4 A,4 | G,8 | z4 G,4 | G,4 F,4 | G,8- | G,8 | %72
w: faict, _|_||||et|lo- yal|tu le|sens,|trai-|ctez le|bien|_|
 z4 G,4 | A,6 G,2 | F,4 E,4 | D,8 | z4 G,4 | E,4 C,4 | G,6 A,2 | B,4 C4- | C2 B,2 A,2 G,2 | %81
w: qu'il|ne _|_ trou-|ble|son|sens par|ta ri-|guer, ta|_ _ _ _|
 A,4 A,4 | G,8- | G,8 | z8 | z8 | G,8 | G,4 G,4 | A,4 F,4 | B,4 A,4 | G,8 | F,4 G,4 | D,8 | %93
w: * ri-|guer,|_|||que|sou- vent|le trans-|por- *|||te,|
 z4 G,4 | G,4 G,4 | A,4 F,4 | B,6 A,2 | G,2 F,2 G,4 | D,8 | z4 G,4 | G,4 G,4 | A,4 F,4 | B,4 A,4 | %103
w: que|sou- vent|le trans-|por- *||te,|que|sou- vent|le trans-|por- *|
 G,8 | C,8 | z8 | C,16 | B,,8 C,8 | G,16 |] %109
w: |te.||He-|las ma-|mour.|

